Newaita-dark/apps/22/transmission.svg

<?xml version="1.0" encoding="UTF-8"?>
<svg xmlns="http://www.w3.org/2000/svg" xmlns:xlink="http://www.w3.org/1999/xlink" width="22pt" height="22pt" viewBox="0 0 22 22" version="1.1">
<defs>
<radialGradient id="radial0" gradientUnits="userSpaceOnUse" cx="450.908936" cy="189.579361" fx="450.908936" fy="189.579361" r="21.166656" gradientTransform="matrix(0.000000119742,-0.0537161,-0.0966889,-0.0000000698078,29.245281,43.949187)">
<stop offset="0" style="stop-color:rgb(0%,0%,0%);stop-opacity:0.313725;"/>
<stop offset="0.222222" style="stop-color:rgb(0%,0%,0%);stop-opacity:0.27451;"/>
<stop offset="1" style="stop-color:rgb(0%,0%,0%);stop-opacity:0;"/>
</radialGradient>
<radialGradient id="radial1" gradientUnits="userSpaceOnUse" cx="450.908936" cy="189.579361" fx="450.908936" fy="189.579361" r="21.166656" gradientTransform="matrix(-0.000000119742,0.0537161,0.0966889,0.0000000698078,-7.415063,-4.947746)">
<stop offset="0" style="stop-color:rgb(0%,0%,0%);stop-opacity:0.313725;"/>
<stop offset="0.222222" style="stop-color:rgb(0%,0%,0%);stop-opacity:0.27451;"/>
<stop offset="1" style="stop-color:rgb(0%,0%,0%);stop-opacity:0;"/>
</radialGradient>
<radialGradient id="radial2" gradientUnits="userSpaceOnUse" cx="450.908936" cy="189.579361" fx="450.908936" fy="189.579361" r="21.166656" gradientTransform="matrix(-0.000000119742,-0.0537161,0.0966889,-0.0000000698078,-7.415063,43.949187)">
<stop offset="0" style="stop-color:rgb(0%,0%,0%);stop-opacity:0.313725;"/>
<stop offset="0.222222" style="stop-color:rgb(0%,0%,0%);stop-opacity:0.27451;"/>
<stop offset="1" style="stop-color:rgb(0%,0%,0%);stop-opacity:0;"/>
</radialGradient>
<radialGradient id="radial3" gradientUnits="userSpaceOnUse" cx="450.908936" cy="189.579361" fx="450.908936" fy="189.579361" r="21.166656" gradientTransform="matrix(0.000000119742,0.0537161,-0.0966889,0.0000000698078,29.24528,-4.947746)">
<stop offset="0" style="stop-color:rgb(0%,0%,0%);stop-opacity:0.313725;"/>
<stop offset="0.222222" style="stop-color:rgb(0%,0%,0%);stop-opacity:0.27451;"/>
<stop offset="1" style="stop-color:rgb(0%,0%,0%);stop-opacity:0;"/>
</radialGradient>
<linearGradient id="linear0" gradientUnits="userSpaceOnUse" x1="255.323059" y1="233.5" x2="255.323044" y2="254.666656" gradientTransform="matrix(0.00918504,0,0,0.0429729,8.569953,9.466562)">
<stop offset="0" style="stop-color:rgb(0%,0%,0%);stop-opacity:0.27451;"/>
<stop offset="1" style="stop-color:rgb(0%,0%,0%);stop-opacity:0;"/>
</linearGradient>
<linearGradient id="linear1" gradientUnits="userSpaceOnUse" x1="-349.249969" y1="87.979172" x2="-433.916626" y2="87.979172" gradientTransform="matrix(0.000000000000000003,0.0429729,-0.0429729,0.000000000000000003,12.876637,22.456896)">
<stop offset="0" style="stop-color:rgb(95.686275%,26.27451%,21.176471%);stop-opacity:1;"/>
<stop offset="1" style="stop-color:rgb(93.72549%,32.54902%,31.372549%);stop-opacity:1;"/>
</linearGradient>
<linearGradient id="linear2" gradientUnits="userSpaceOnUse" x1="254" y1="233.5" x2="254" y2="-144.854156" gradientTransform="matrix(0.0429729,0,0,0.0429729,0,9.239163)">
<stop offset="0" style="stop-color:rgb(74.117647%,74.117647%,74.117647%);stop-opacity:1;"/>
<stop offset="1" style="stop-color:rgb(87.843137%,87.843137%,87.843137%);stop-opacity:1;"/>
</linearGradient>
</defs>
<g id="surface1">
<path style=" stroke:none;fill-rule:nonzero;fill:url(#radial0);" d="M 11.140625 19.5 L 12.960938 19.5 L 12.960938 18.589844 L 11.140625 18.589844 Z M 11.140625 19.5 "/>
<path style=" stroke:none;fill-rule:nonzero;fill:url(#radial1);" d="M 10.6875 19.5 L 8.867188 19.5 L 8.867188 20.410156 L 10.6875 20.410156 Z M 10.6875 19.5 "/>
<path style=" stroke:none;fill-rule:nonzero;fill:url(#radial2);" d="M 10.6875 19.5 L 8.867188 19.5 L 8.867188 18.589844 L 10.6875 18.589844 Z M 10.6875 19.5 "/>
<path style=" stroke:none;fill-rule:nonzero;fill:url(#radial3);" d="M 11.140625 19.5 L 12.960938 19.5 L 12.960938 20.410156 L 11.140625 20.410156 Z M 11.140625 19.5 "/>
<path style=" stroke:none;fill-rule:nonzero;fill:url(#linear0);" d="M 10.6875 19.273438 L 11.140625 19.273438 L 11.140625 20.410156 L 10.6875 20.410156 Z M 10.6875 19.273438 "/>
<path style=" stroke:none;fill-rule:nonzero;fill:url(#linear1);" d="M 19.101562 5.175781 L 19.101562 6.085938 C 19.101562 6.835938 18.492188 7.449219 17.738281 7.449219 L 4.09375 7.449219 C 3.339844 7.449219 2.730469 6.835938 2.730469 6.085938 L 2.730469 5.175781 C 2.730469 4.421875 3.339844 3.808594 4.09375 3.808594 L 17.738281 3.808594 C 18.492188 3.808594 19.101562 4.421875 19.101562 5.175781 Z M 19.101562 5.175781 "/>
<path style=" stroke:none;fill-rule:nonzero;fill:rgb(100%,100%,100%);fill-opacity:0.392157;" d="M 4.09375 3.808594 C 3.335938 3.808594 2.730469 4.417969 2.730469 5.175781 L 2.730469 5.402344 C 2.730469 4.644531 3.335938 4.039062 4.09375 4.039062 L 17.738281 4.039062 C 18.492188 4.039062 19.101562 4.644531 19.101562 5.402344 L 19.101562 5.175781 C 19.101562 4.417969 18.492188 3.808594 17.738281 3.808594 Z M 4.09375 3.808594 "/>
<path style=" stroke:none;fill-rule:nonzero;fill:rgb(0%,0%,0%);fill-opacity:0.235294;" d="M 2.730469 5.855469 L 2.730469 6.085938 C 2.730469 6.839844 3.335938 7.449219 4.09375 7.449219 L 17.738281 7.449219 C 18.492188 7.449219 19.101562 6.839844 19.101562 6.085938 L 19.101562 5.855469 C 19.101562 6.613281 18.492188 7.222656 17.738281 7.222656 L 4.09375 7.222656 C 3.335938 7.222656 2.730469 6.613281 2.730469 5.855469 Z M 2.730469 5.855469 "/>
<path style=" stroke:none;fill-rule:nonzero;fill:rgb(12.941177%,12.941177%,12.941177%);fill-opacity:1;" d="M 19.164062 5.175781 C 19.164062 4.382812 18.527344 3.746094 17.738281 3.746094 L 4.09375 3.746094 C 3.300781 3.746094 2.664062 4.382812 2.664062 5.175781 L 2.664062 6.085938 C 2.664062 6.875 3.300781 7.511719 4.09375 7.511719 L 17.738281 7.511719 C 18.527344 7.511719 19.164062 6.875 19.164062 6.085938 Z M 19.035156 5.175781 L 19.035156 6.085938 C 19.035156 6.804688 18.457031 7.382812 17.738281 7.382812 L 4.09375 7.382812 C 3.371094 7.382812 2.792969 6.804688 2.792969 6.085938 L 2.792969 5.175781 C 2.792969 4.453125 3.371094 3.875 4.09375 3.875 L 17.738281 3.875 C 18.457031 3.875 19.035156 4.453125 19.035156 5.175781 Z M 19.035156 5.175781 "/>
<path style=" stroke:none;fill-rule:nonzero;fill:url(#linear2);" d="M 10.003906 3.015625 C 9.5 3.015625 9.097656 3.371094 9.097656 3.808594 L 9.097656 12.90625 L 6.820312 12.90625 C 6.316406 12.90625 5.914062 13.261719 5.914062 13.703125 L 10.460938 19.046875 C 10.859375 19.445312 10.972656 19.445312 11.371094 19.046875 L 15.917969 13.703125 C 16.203125 13.367188 15.511719 12.90625 15.007812 12.90625 L 12.734375 12.90625 L 12.734375 3.808594 C 12.734375 3.371094 12.328125 3.015625 11.824219 3.015625 Z M 10.003906 3.015625 "/>
<path style=" stroke:none;fill-rule:nonzero;fill:rgb(100%,100%,100%);fill-opacity:0.392157;" d="M 10.003906 3.015625 C 9.5 3.015625 9.097656 3.371094 9.097656 3.808594 L 9.097656 3.925781 C 9.097656 3.484375 9.5 3.128906 10.003906 3.128906 L 11.824219 3.128906 C 12.328125 3.128906 12.734375 3.484375 12.734375 3.925781 L 12.734375 3.808594 C 12.734375 3.371094 12.328125 3.015625 11.824219 3.015625 Z M 6.820312 12.90625 C 6.316406 12.90625 5.914062 13.261719 5.914062 13.703125 L 5.921875 13.710938 C 5.976562 13.320312 6.359375 13.019531 6.820312 13.019531 L 9.097656 13.019531 L 9.097656 12.90625 Z M 12.734375 12.90625 L 12.734375 13.019531 L 15.007812 13.019531 C 15.402344 13.019531 15.914062 13.304688 15.976562 13.585938 C 16.054688 13.269531 15.457031 12.90625 15.007812 12.90625 Z M 12.734375 12.90625 "/>
<path style=" stroke:none;fill-rule:nonzero;fill:rgb(0%,0%,0%);fill-opacity:0.235294;" d="M 15.976562 13.472656 C 15.96875 13.511719 15.949219 13.550781 15.917969 13.589844 L 11.371094 18.933594 C 10.972656 19.332031 10.859375 19.332031 10.460938 18.933594 L 5.921875 13.597656 C 5.914062 13.632812 5.914062 13.667969 5.914062 13.703125 L 10.460938 19.046875 C 10.859375 19.445312 10.972656 19.445312 11.371094 19.046875 L 15.917969 13.703125 C 15.980469 13.628906 15.996094 13.550781 15.976562 13.472656 Z M 15.976562 13.472656 "/>
<path style="fill:none;stroke-width:11.338583;stroke-linecap:square;stroke-linejoin:bevel;stroke:rgb(12.941177%,12.941177%,12.941177%);stroke-opacity:1;stroke-miterlimit:4;" d="M 879.858758 265.228802 C 835.539438 265.228802 800.152694 296.492819 800.152694 334.971609 L 800.152694 1135.124302 L 599.85685 1135.124302 C 555.537529 1135.124302 520.150785 1166.388319 520.150785 1205.210669 L 920.055351 1675.201603 C 955.098535 1710.244787 965.061793 1710.244787 1000.104977 1675.201603 L 1400.009543 1205.210669 C 1425.089469 1175.664456 1364.279238 1135.124302 1319.959918 1135.124302 L 1120.007635 1135.124302 L 1120.007635 334.971609 C 1120.007635 296.492819 1084.27733 265.228802 1039.958009 265.228802 Z M 879.858758 265.228802 " transform="matrix(0.0113699,0,0,0.0113699,0,0)"/>
</g>
</svg>

<svg xmlns="http://www.w3.org/2000/svg" width="22pt" height="22pt" viewBox="0 0 22 22"><defs><radialGradient id="a" gradientUnits="userSpaceOnUse" cx="450.909" cy="189.579" fx="450.909" fy="189.579" r="21.167" gradientTransform="matrix(0 -.05372 -.09669 0 29.245 43.95)"><stop offset="0" stop-opacity=".314"/><stop offset=".222" stop-opacity=".275"/><stop offset="1" stop-opacity="0"/></radialGradient><radialGradient id="b" gradientUnits="userSpaceOnUse" cx="450.909" cy="189.579" fx="450.909" fy="189.579" r="21.167" gradientTransform="matrix(0 .05372 .09669 0 -7.415 -4.948)"><stop offset="0" stop-opacity=".314"/><stop offset=".222" stop-opacity=".275"/><stop offset="1" stop-opacity="0"/></radialGradient><radialGradient id="c" gradientUnits="userSpaceOnUse" cx="450.909" cy="189.579" fx="450.909" fy="189.579" r="21.167" gradientTransform="matrix(0 -.05372 .09669 0 -7.415 43.95)"><stop offset="0" stop-opacity=".314"/><stop offset=".222" stop-opacity=".275"/><stop offset="1" stop-opacity="0"/></radialGradient><radialGradient id="d" gradientUnits="userSpaceOnUse" cx="450.909" cy="189.579" fx="450.909" fy="189.579" r="21.167" gradientTransform="matrix(0 .05372 -.09669 0 29.245 -4.948)"><stop offset="0" stop-opacity=".314"/><stop offset=".222" stop-opacity=".275"/><stop offset="1" stop-opacity="0"/></radialGradient><linearGradient id="e" gradientUnits="userSpaceOnUse" x1="255.323" y1="233.5" x2="255.323" y2="254.667" gradientTransform="matrix(.00919 0 0 .04297 8.57 9.467)"><stop offset="0" stop-opacity=".275"/><stop offset="1" stop-opacity="0"/></linearGradient><linearGradient id="f" gradientUnits="userSpaceOnUse" x1="-349.25" y1="87.979" x2="-433.917" y2="87.979" gradientTransform="matrix(0 .04297 -.04297 0 12.877 22.457)"><stop offset="0" stop-color="#f44336"/><stop offset="1" stop-color="#ef5350"/></linearGradient><linearGradient id="g" gradientUnits="userSpaceOnUse" x1="254" y1="233.5" x2="254" y2="-144.854" gradientTransform="matrix(.04297 0 0 .04297 0 9.24)"><stop offset="0" stop-color="#bdbdbd"/><stop offset="1" stop-color="#e0e0e0"/></linearGradient></defs><path d="M11.14 19.5h1.82v-.91h-1.82zm0 0" fill="url(#a)"/><path d="M10.688 19.5h-1.82v.91h1.82zm0 0" fill="url(#b)"/><path d="M10.688 19.5h-1.82v-.91h1.82zm0 0" fill="url(#c)"/><path d="M11.14 19.5h1.82v.91h-1.82zm0 0" fill="url(#d)"/><path d="M10.688 19.273h.453v1.137h-.454zm0 0" fill="url(#e)"/><path d="M19.102 5.176v.91c0 .75-.61 1.363-1.364 1.363H4.094A1.365 1.365 0 0 1 2.73 6.086v-.91c0-.754.61-1.367 1.364-1.367h13.644c.754 0 1.364.613 1.364 1.367zm0 0" fill="url(#f)"/><path d="M4.094 3.809A1.36 1.36 0 0 0 2.73 5.176v.226c0-.757.606-1.363 1.364-1.363h13.644a1.36 1.36 0 0 1 1.364 1.363v-.226c0-.758-.61-1.367-1.364-1.367zm0 0" fill="#fff" fill-opacity=".392"/><path d="M2.73 5.855v.23A1.36 1.36 0 0 0 4.094 7.45h13.644c.754 0 1.364-.61 1.364-1.363v-.23c0 .757-.61 1.367-1.364 1.367H4.094A1.36 1.36 0 0 1 2.73 5.855zm0 0" fill-opacity=".235"/><path d="M19.164 5.176c0-.793-.637-1.43-1.426-1.43H4.094c-.793 0-1.43.637-1.43 1.43v.91c0 .789.637 1.426 1.43 1.426h13.644c.79 0 1.426-.637 1.426-1.426zm-.129 0v.91c0 .719-.578 1.297-1.297 1.297H4.094c-.723 0-1.301-.578-1.301-1.297v-.91c0-.723.578-1.301 1.3-1.301h13.645c.719 0 1.297.578 1.297 1.3zm0 0" fill="#212121"/><path d="M10.004 3.016c-.504 0-.906.355-.906.793v9.097H6.82c-.504 0-.906.356-.906.797l4.547 5.344c.398.398.512.398.91 0l4.547-5.344c.285-.336-.406-.797-.91-.797h-2.274V3.81c0-.438-.406-.793-.91-.793zm0 0" fill="url(#g)"/><path d="M10.004 3.016c-.504 0-.906.355-.906.793v.117c0-.442.402-.797.906-.797h1.82c.504 0 .91.355.91.797v-.117c0-.438-.406-.793-.91-.793zm-3.184 9.89c-.504 0-.906.356-.906.797l.008.008c.055-.39.437-.691.898-.691h2.278v-.114zm5.914 0v.114h2.274c.394 0 .906.285.969.566.078-.316-.52-.68-.97-.68zm0 0" fill="#fff" fill-opacity=".392"/><path d="M15.977 13.473a.276.276 0 0 1-.059.117l-4.547 5.344c-.398.398-.512.398-.91 0l-4.54-5.336c-.007.035-.007.07-.007.105l4.547 5.344c.398.398.512.398.91 0l4.547-5.344a.249.249 0 0 0 .059-.23zm0 0" fill-opacity=".235"/><path d="M10.004 3.016c-.504 0-.906.355-.906.793v9.097H6.82c-.504 0-.906.356-.906.797l4.547 5.344c.398.398.512.398.91 0l4.547-5.344c.285-.336-.406-.797-.91-.797h-2.274V3.81c0-.438-.406-.793-.91-.793zm0 0" fill="none" stroke-width=".12892443" stroke-linecap="square" stroke-linejoin="bevel" stroke="#212121"/></svg>
